X: 4135
T: LORD DOWN
R: Strathspey.
%R: strathspey
B: James Kerr "Merry Melodies" v.4 p.16 #135
Z: 2016 John Chambers <jc:trillian.mit.edu>
M: C
L: 1/8
K: G
|:\
(3(GAB) d2 (3(edc) d2 | c>AF>A c2(BA) |\
(3(GAB) d2 (3(edc) d2 | (3(efg) d>c B>A G2 ::\
g2 d>g g<g d>e |
=f2 c>f f<f c>f |\
[1 g2 d>g g<g d>e | g>ed>c B>A G2 :|\
[2 g>ef>d f>de>c | B<d c>A G3 z |]

%%sep 1 1 500
%%sep 1 1 500

